; generated by SuperSlicer 2.5.59.13 on 2024-08-06 at 03:43:30 UTC


;
;

;
;
; TODO: check the size of the extruder and the y-bar clearance. Optimize & test supports.

; external perimeters extrusion width = 0.40mm
; perimeters extrusion width = 0.40mm
; infill extrusion width = 0.40mm
; solid infill extrusion width = 0.40mm
; top infill extrusion width = 0.40mm
; support material extrusion width = 0.44mm
; first layer extrusion width = 0.40mm


M107
;TYPE:Custom
print_start EXTRUDER=196 BED=59  AREA_START=98.8591,104.408 AREA_END=151.141,142.04

#M109 S196 ; set and wait for full extruder temperature


;;;;;;;;;;;;;;; prime line start 
;G90
;G1 Z4 F720
;G1 X0 Y0 F8000 ; go outside print area
;G1 Z0.25 F720
;M109 S196  ; set temperature and wait for it to be reached
;G92 E0
; drawing prime line
;G1 X30 E4 F1000 ; intro line
;G1 X60 E6 F1000 ; intro line
;G92 E0
; prime line end


M107
G21 ; set units to millimeters
G90 ; use absolute coordinates
M83 ; use relative distances for extrusion
SET_PRESSURE_ADVANCE ADVANCE=0.062
M104 S181 ; set temperature
M109 S196 ; set temperature and wait for it to be reached
M190 S59 ; set bed temperature and wait for it to be reached
;LAYER_CHANGE
;Z:0.25
;HEIGHT:0.25
;BEFORE_LAYER_CHANGE
;0.25
G92 E0

G1 Z0.25 F24000
;AFTER_LAYER_CHANGE
;0.25
G1 E-1.5 F3000
M204 S1000
G1 Z0.65 F24000
G1 X100.862 Y107.009
G1 Z0.25
G1 E1.5 F1800
;TYPE:Skirt
;WIDTH:0.52
M107
G1 F1680
G1 X99.722 Y108.919 E0.0981
G1 X99.325 Y111.107 E0.0981
G1 X99.325 Y124.263 E0.5803
G1 X99.686 Y126.353 E0.09353
G1 X103.627 Y137.43 E0.51861
G1 X105.402 Y140.037 E0.1391
G1 X107.312 Y141.177 E0.0981
G1 X109.5 Y141.574 E0.0981
G1 X140.5 Y141.574 E1.36738
G1 X143.551 Y140.776 E0.1391
G1 X145.265 Y139.359 E0.0981
G1 X146.373 Y137.43 E0.09811
G1 X150.314 Y126.353 E0.51861
G1 X150.675 Y124.263 E0.09353
G1 X150.675 Y111.107 E0.58029
G1 X149.928 Y108.149 E0.1346
G1 X148.54 Y106.411 E0.0981
G1 X146.63 Y105.271 E0.09811
G1 X144.441 Y104.874 E0.0981
G1 X105.559 Y104.874 E1.71508
G1 X102.6 Y105.621 E0.1346
G1 X100.909 Y106.972 E0.09545
M107
G1 E-1.5 F3000
G1 Z0.65 F24000
G1 X105.559 Y111.107
G1 Z0.25
G1 E1.5 F1800
;TYPE:Support material
;WIDTH:0.4
M107
G1 F1680
G1 X113.963 Y111.107 E0.27533
G1 X113.963 Y118.293 E0.23539
G1 X113.477 Y118.293 E0.01594
G1 X113.477 Y121.461 E0.10378
G1 X112.442 Y121.461 E0.03391
G1 X112.296 Y121.315 E0.00675
G1 X111.783 Y121.315 E0.01679
G1 X110.854 Y121.316 E0.03045
G1 X110.577 Y121.593 E0.01284
G1 X110.577 Y122.377 E0.0257
G1 X109.304 Y122.377 E0.0417
G1 X109.027 Y122.655 E0.01284
G1 X109.027 Y124.263 E0.05269
G1 X105.559 Y124.263 E0.11362
G1 X105.559 Y111.167 E0.42901
M107
G1 X113.391 Y118.206 F24000
M107
G1 F1680
G1 X113.391 Y111.343 E0.22484
G1 X113.006 Y111.343 E0.01261
G1 X113.006 Y121.225 E0.32374
G1 X112.621 Y121.225 E0.0126
G1 X112.621 Y111.343 E0.32375
G1 X112.237 Y111.343 E0.0126
G1 X112.237 Y121.08 E0.31897
G1 X111.852 Y121.08 E0.01261
G1 X111.852 Y111.343 E0.31897
G1 X111.467 Y111.343 E0.01261
G1 X111.467 Y121.08 E0.31897
G1 X111.082 Y121.08 E0.01261
G1 X111.082 Y111.343 E0.31898
G1 X110.697 Y111.343 E0.01261
G1 X110.697 Y121.139 E0.32092
G1 X110.341 Y121.495 E0.01649
G1 X110.341 Y122.142 E0.02118
G1 X110.312 Y122.142 E0.00095
G1 X110.312 Y111.343 E0.35377
G1 X109.928 Y111.343 E0.0126
G1 X109.928 Y122.142 E0.35377
G1 X109.543 Y122.142 E0.01261
G1 X109.543 Y111.343 E0.35376
G1 X109.158 Y111.343 E0.01261
G1 X109.158 Y122.191 E0.35536
G1 X108.791 Y122.557 E0.01698
G1 X108.791 Y124.028 E0.04818
G1 X108.773 Y124.028 E0.0006
G1 X108.773 Y111.343 E0.41554
G1 X108.388 Y111.343 E0.01261
G1 X108.388 Y124.028 E0.41554
G1 X108.003 Y124.028 E0.01261
G1 X108.003 Y111.343 E0.41554
G1 X107.619 Y111.343 E0.01261
G1 X107.619 Y124.028 E0.41554
G1 X107.234 Y124.028 E0.01261
G1 X107.234 Y111.343 E0.41554
G1 X106.849 Y111.343 E0.01261
G1 X106.849 Y124.028 E0.41554
G1 X106.464 Y124.028 E0.01261
G1 X106.464 Y111.343 E0.41554
G1 X106.079 Y111.343 E0.01261
G1 X106.079 Y124.177 E0.42042
M107
G1 E-1.5 F3000
G1 Z0.65 F24000
G1 X117.923 Y121.461
G1 Z0.25
G1 E1.5 F1800
M107
G1 F1680
G1 X117.923 Y118.293 E0.10378
G1 X117.437 Y118.293 E0.01594
G1 X117.437 Y111.107 E0.23539
G1 X125.841 Y111.107 E0.27533
G1 X125.841 Y124.263 E0.43098
G1 X122.373 Y124.263 E0.11361
G1 X122.373 Y122.655 E0.0527
G1 X122.096 Y122.377 E0.01284
G1 X120.823 Y122.377 E0.04169
G1 X120.823 Y121.593 E0.02571
G1 X120.546 Y121.316 E0.01284
G1 X119.617 Y121.315 E0.03044
G1 X119.104 Y121.315 E0.01679
G1 X118.958 Y121.461 E0.00676
G1 X117.983 Y121.461 E0.03194
M107
G1 X118.009 Y118.206 F24000
M107
G1 F1680
G1 X118.009 Y111.343 E0.22484
G1 X118.394 Y111.343 E0.01261
G1 X118.394 Y121.225 E0.32374
G1 X118.779 Y121.225 E0.0126
G1 X118.779 Y111.343 E0.32375
G1 X119.163 Y111.343 E0.0126
G1 X119.163 Y121.08 E0.31897
G1 X119.548 Y121.08 E0.01261
G1 X119.548 Y111.343 E0.31897
G1 X119.933 Y111.343 E0.01261
G1 X119.933 Y121.08 E0.31897
G1 X120.318 Y121.08 E0.01261
G1 X120.318 Y111.343 E0.31898
G1 X120.703 Y111.343 E0.01261
G1 X120.703 Y121.139 E0.32092
G1 X121.059 Y121.495 E0.01649
G1 X121.059 Y122.142 E0.02118
G1 X121.088 Y122.142 E0.00095
G1 X121.088 Y111.343 E0.35377
G1 X121.472 Y111.343 E0.0126
G1 X121.472 Y122.142 E0.35377
G1 X121.857 Y122.142 E0.01261
G1 X121.857 Y111.343 E0.35376
G1 X122.242 Y111.343 E0.01261
G1 X122.242 Y122.191 E0.35536
G1 X122.609 Y122.557 E0.01698
G1 X122.609 Y124.028 E0.04818
G1 X122.627 Y124.028 E0.0006
G1 X122.627 Y111.343 E0.41554
G1 X123.012 Y111.343 E0.01261
G1 X123.012 Y124.028 E0.41554
G1 X123.397 Y124.028 E0.01261
G1 X123.397 Y111.343 E0.41554
G1 X123.781 Y111.343 E0.01261
G1 X123.781 Y124.028 E0.41554
G1 X124.166 Y124.028 E0.01261
G1 X124.166 Y111.343 E0.41554
G1 X124.551 Y111.343 E0.01261
G1 X124.551 Y124.028 E0.41554
G1 X124.936 Y124.028 E0.01261
G1 X124.936 Y111.343 E0.41554
G1 X125.321 Y111.343 E0.01261
G1 X125.321 Y124.177 E0.42042
M107
G1 E-1.5 F3000
G1 Z0.65 F24000
G1 X119.111 Y124.09
G1 Z0.25
G1 E1.5 F1800
;TYPE:Internal perimeter
M107
G1 F1680
G1 X120.661 Y124.09 E0.05078
G1 X120.661 Y128.957 E0.15946
G1 X110.739 Y128.957 E0.32503
G1 X110.739 Y124.09 E0.15946
G1 X112.289 Y124.09 E0.05078
G1 X112.289 Y123.173 E0.03002
G1 X119.111 Y123.173 E0.22348
G1 X119.111 Y124.03 E0.02806
M107
G1 X119.457 Y123.743 F24000
M107
G1 F1680
G1 X121.007 Y123.743 E0.05078
G1 X121.007 Y129.304 E0.18215
G1 X110.393 Y129.304 E0.34773
G1 X110.393 Y123.743 E0.18215
G1 X111.943 Y123.743 E0.05078
G1 X111.943 Y122.827 E0.03002
G1 X119.457 Y122.827 E0.24617
G1 X119.457 Y123.683 E0.02806
M107
G1 X119.804 Y123.397 F24000
M107
G1 F1680
G1 X121.354 Y123.397 E0.05078
G1 X121.354 Y129.65 E0.20485
G1 X110.046 Y129.65 E0.37041
G1 X110.046 Y123.397 E0.20485
G1 X111.596 Y123.397 E0.05077
G1 X111.596 Y122.48 E0.03003
G1 X119.804 Y122.48 E0.26886
G1 X119.804 Y123.337 E0.02806
M107
G1 X120.15 Y123.051 F24000
;TYPE:External perimeter
M107
G1 F1680
G1 X121.7 Y123.051 E0.05078
G1 X121.7 Y135.141 E0.39605
G1 X120.75 Y135.141 E0.03112
G1 X120.75 Y129.996 E0.16851
G1 X110.65 Y129.996 E0.33087
G1 X110.65 Y135.141 E0.16851
G1 X109.7 Y135.141 E0.03113
G1 X109.7 Y123.051 E0.39605
G1 X111.25 Y123.051 E0.05077
G1 X111.25 Y121.989 E0.03479
G1 X111.9 Y121.988 E0.02129
G1 X111.9 Y122.134 E0.00477
G1 X119.5 Y122.134 E0.24897
G1 X119.5 Y121.988 E0.00477
G1 X119.617 Y121.989 E0.00382
G1 X120.15 Y121.989 E0.01747
G1 X120.15 Y122.991 E0.03283
M107
;WIPE_START
M204 S1500
G1 X120.15 Y123.251 F24000
;WIPE_END
M204 S1000
G1 X120.384 Y124.367
;TYPE:Solid infill
;WIDTH:0.383917
M107
G1 F1680
G1 X120.384 Y128.68 E0.13562
G1 X111.016 Y128.68 E0.29454
G1 X111.016 Y124.367 E0.13563
G1 X112.566 Y124.367 E0.04874
G1 X112.566 Y123.45 E0.02882
G1 X118.834 Y123.45 E0.19707
G1 X118.834 Y124.367 E0.02881
G1 X120.324 Y124.367 E0.04685
M107
G1 X120.038 Y124.713 F24000
M107
G1 F1680
G1 X120.038 Y128.334 E0.11385
G1 X111.362 Y128.334 E0.27276
G1 X111.362 Y124.713 E0.11385
G1 X112.912 Y124.713 E0.04873
G1 X112.912 Y123.797 E0.02882
G1 X118.488 Y123.797 E0.17529
G1 X118.488 Y124.713 E0.02882
G1 X119.978 Y124.713 E0.04685
M107
G1 X119.691 Y125.059 F24000
M107
G1 F1680
G1 X119.691 Y127.988 E0.09207
G1 X111.709 Y127.988 E0.25098
G1 X111.709 Y125.059 E0.09207
G1 X113.259 Y125.059 E0.04873
G1 X113.259 Y124.143 E0.02882
G1 X118.141 Y124.143 E0.15351
G1 X118.141 Y125.059 E0.02882
G1 X119.631 Y125.059 E0.04685
M107
G1 X119.345 Y125.406 F24000
M107
G1 F1680
G1 X119.345 Y127.641 E0.07029
G1 X112.055 Y127.641 E0.2292
G1 X112.055 Y125.406 E0.07029
G1 X113.605 Y125.406 E0.04873
G1 X113.605 Y124.489 E0.02882
G1 X117.795 Y124.489 E0.13173
G1 X117.795 Y125.406 E0.02882
G1 X119.285 Y125.406 E0.04685
M107
G1 X118.998 Y125.752 F24000
M107
G1 F1680
G1 X118.998 Y127.295 E0.04851
G1 X112.401 Y127.295 E0.20742
G1 X112.401 Y125.752 E0.04851
G1 X113.952 Y125.752 E0.04874
G1 X113.952 Y124.836 E0.02881
G1 X117.449 Y124.836 E0.10996
G1 X117.449 Y125.752 E0.02881
G1 X118.938 Y125.752 E0.04685
M107
G1 X118.652 Y126.098 F24000
M107
G1 F1680
G1 X118.652 Y126.949 E0.02673
G1 X112.748 Y126.949 E0.18564
G1 X112.748 Y126.098 E0.02673
G1 X114.298 Y126.098 E0.04874
G1 X114.298 Y125.182 E0.02882
G1 X117.102 Y125.182 E0.08817
G1 X117.102 Y126.098 E0.02882
G1 X118.592 Y126.098 E0.04685
M107
G1 X116.756 Y126.602 F24000
M107
G1 F1680
G1 X114.644 Y126.602 E0.06639
G1 X114.644 Y125.528 E0.03377
G1 X116.756 Y125.528 E0.06639
G1 X116.756 Y126.542 E0.03188
M107
G1 X118.479 Y126.524 F24000
;TYPE:Gap fill
;WIDTH:0.535015
M107
G1 F1680
G1 X116.929 Y126.524 E0.07089
M107
G1 X114.471 Y126.524 F24000
M107
G1 F1680
G1 X112.921 Y126.524 E0.07088
M107
G1 X114.991 Y126.256 F24000
;TYPE:Solid infill
;WIDTH:0.383917
M107
G1 F1680
G1 X114.991 Y125.875 E0.01199
G1 X116.409 Y125.875 E0.04461
G1 X116.409 Y126.256 E0.01199
G1 X115.051 Y126.256 E0.04273
M107
G1 E-1.5 F3000
G1 Z0.65 F24000
G1 X121.225 Y134.967
G1 Z0.25
G1 E1.5 F1800
;TYPE:Gap fill
;WIDTH:0.657287
M107
G1 F1680
G1 X121.225 Y129.823 E0.29369
M107
G1 E-1.5 F3000
G1 Z0.65 F24000
G1 X110.175 Y134.967
G1 Z0.25
G1 E1.5 F1800
;WIDTH:0.657321
M107
G1 F1680
G1 X110.175 Y129.823 E0.29371
M107
G1 E-1.5 F3000
G1 Z0.65 F24000
G1 X124.159 Y124.263
G1 Z0.25
G1 E1.5 F1800
;TYPE:Support material
;WIDTH:0.4
M107
G1 F1680
G1 X124.159 Y111.107 E0.43097
G1 X132.563 Y111.107 E0.27533
G1 X132.563 Y118.293 E0.2354
G1 X132.077 Y118.293 E0.01594
G1 X132.077 Y121.461 E0.10377
G1 X131.042 Y121.461 E0.03391
G1 X130.896 Y121.315 E0.00675
G1 X130.383 Y121.315 E0.0168
G1 X129.454 Y121.316 E0.03044
G1 X129.177 Y121.593 E0.01284
G1 X129.177 Y122.377 E0.0257
G1 X127.904 Y122.377 E0.0417
G1 X127.627 Y122.655 E0.01284
G1 X127.627 Y124.263 E0.0527
G1 X124.219 Y124.263 E0.11165
M107
G1 X124.679 Y124.177 F24000
M107
G1 F1680
G1 X124.679 Y111.343 E0.42042
G1 X125.064 Y111.343 E0.01261
G1 X125.064 Y124.028 E0.41554
G1 X125.449 Y124.028 E0.01261
G1 X125.449 Y111.343 E0.41554
G1 X125.834 Y111.343 E0.01261
G1 X125.834 Y124.028 E0.41554
G1 X126.219 Y124.028 E0.01261
G1 X126.219 Y111.343 E0.41554
G1 X126.603 Y111.343 E0.01261
G1 X126.603 Y124.028 E0.41554
G1 X126.988 Y124.028 E0.01261
G1 X126.988 Y111.343 E0.41554
G1 X127.373 Y111.343 E0.01261
G1 X127.373 Y124.028 E0.41554
G1 X127.391 Y124.028 E0.0006
G1 X127.391 Y122.557 E0.04818
G1 X127.758 Y122.191 E0.01698
G1 X127.758 Y111.343 E0.35536
G1 X128.143 Y111.343 E0.01261
G1 X128.143 Y122.142 E0.35376
G1 X128.528 Y122.142 E0.01261
G1 X128.528 Y111.343 E0.35377
G1 X128.912 Y111.343 E0.0126
G1 X128.912 Y122.142 E0.35377
G1 X128.941 Y122.142 E0.00095
G1 X128.941 Y121.495 E0.02118
G1 X129.297 Y121.139 E0.01649
G1 X129.297 Y111.343 E0.32092
G1 X129.682 Y111.343 E0.01261
G1 X129.682 Y121.08 E0.31898
G1 X130.067 Y121.08 E0.01261
G1 X130.067 Y111.343 E0.31897
G1 X130.452 Y111.343 E0.01261
G1 X130.452 Y121.08 E0.31897
G1 X130.837 Y121.08 E0.01261
G1 X130.837 Y111.343 E0.31897
G1 X131.221 Y111.343 E0.0126
G1 X131.221 Y121.225 E0.32375
G1 X131.606 Y121.225 E0.0126
G1 X131.606 Y111.343 E0.32374
G1 X131.991 Y111.343 E0.01261
G1 X131.991 Y118.206 E0.22484
M107
G1 E-1.5 F3000
G1 Z0.65 F24000
G1 X136.037 Y118.293
G1 Z0.25
G1 E1.5 F1800
M107
G1 F1680
G1 X136.037 Y111.107 E0.23539
G1 X144.441 Y111.107 E0.27533
G1 X144.441 Y124.263 E0.43098
G1 X140.973 Y124.263 E0.11361
G1 X140.973 Y122.655 E0.0527
G1 X140.696 Y122.377 E0.01284
G1 X139.423 Y122.377 E0.0417
G1 X139.423 Y121.593 E0.0257
G1 X139.146 Y121.316 E0.01284
G1 X138.217 Y121.315 E0.03044
G1 X137.704 Y121.315 E0.0168
G1 X137.558 Y121.461 E0.00675
G1 X136.523 Y121.461 E0.03391
G1 X136.523 Y118.293 E0.10377
G1 X136.097 Y118.293 E0.01398
M107
G1 X136.609 Y118.206 F24000
M107
G1 F1680
G1 X136.609 Y111.343 E0.22484
G1 X136.994 Y111.343 E0.01261
G1 X136.994 Y121.225 E0.32374
G1 X137.379 Y121.225 E0.0126
G1 X137.379 Y111.343 E0.32375
G1 X137.763 Y111.343 E0.0126
G1 X137.763 Y121.08 E0.31897
G1 X138.148 Y121.08 E0.01261
G1 X138.148 Y111.343 E0.31897
G1 X138.533 Y111.343 E0.01261
G1 X138.533 Y121.08 E0.31897
G1 X138.918 Y121.08 E0.01261
G1 X138.918 Y111.343 E0.31898
G1 X139.303 Y111.343 E0.01261
G1 X139.303 Y121.139 E0.32092
G1 X139.659 Y121.495 E0.01649
G1 X139.659 Y122.142 E0.02118
G1 X139.688 Y122.142 E0.00095
G1 X139.688 Y111.343 E0.35377
G1 X140.072 Y111.343 E0.0126
G1 X140.072 Y122.142 E0.35377
G1 X140.457 Y122.142 E0.01261
G1 X140.457 Y111.343 E0.35376
G1 X140.842 Y111.343 E0.01261
G1 X140.842 Y122.191 E0.35536
G1 X141.209 Y122.557 E0.01698
G1 X141.209 Y124.028 E0.04818
G1 X141.227 Y124.028 E0.0006
G1 X141.227 Y111.343 E0.41554
G1 X141.612 Y111.343 E0.01261
G1 X141.612 Y124.028 E0.41554
G1 X141.997 Y124.028 E0.01261
G1 X141.997 Y111.343 E0.41554
G1 X142.381 Y111.343 E0.01261
G1 X142.381 Y124.028 E0.41554
G1 X142.766 Y124.028 E0.01261
G1 X142.766 Y111.343 E0.41554
G1 X143.151 Y111.343 E0.01261
G1 X143.151 Y124.028 E0.41554
G1 X143.536 Y124.028 E0.01261
G1 X143.536 Y111.343 E0.41554
G1 X143.921 Y111.343 E0.01261
G1 X143.921 Y124.177 E0.42042
M107
G1 E-1.5 F3000
G1 Z0.65 F24000
G1 X137.711 Y124.09
G1 Z0.25
G1 E1.5 F1800
;TYPE:Internal perimeter
M107
G1 F1680
G1 X139.261 Y124.09 E0.05078
G1 X139.261 Y128.957 E0.15946
G1 X129.339 Y128.957 E0.32503
G1 X129.339 Y124.09 E0.15946
G1 X130.889 Y124.09 E0.05078
G1 X130.889 Y123.173 E0.03002
G1 X137.711 Y123.173 E0.22348
G1 X137.711 Y124.03 E0.02806
M107
G1 X138.057 Y123.743 F24000
M107
G1 F1680
G1 X139.607 Y123.743 E0.05078
G1 X139.607 Y129.304 E0.18215
G1 X128.993 Y129.304 E0.34773
G1 X128.993 Y123.743 E0.18215
G1 X130.543 Y123.743 E0.05078
G1 X130.543 Y122.827 E0.03002
G1 X138.057 Y122.827 E0.24617
G1 X138.057 Y123.683 E0.02806
M107
G1 X138.404 Y123.397 F24000
M107
G1 F1680
G1 X139.954 Y123.397 E0.05078
G1 X139.954 Y129.65 E0.20485
G1 X128.646 Y129.65 E0.37041
G1 X128.646 Y123.397 E0.20485
G1 X130.196 Y123.397 E0.05077
G1 X130.196 Y122.48 E0.03003
G1 X138.404 Y122.48 E0.26886
G1 X138.404 Y123.337 E0.02806
M107
G1 X138.75 Y123.051 F24000
;TYPE:External perimeter
M107
G1 F1680
G1 X140.3 Y123.051 E0.05078
G1 X140.3 Y135.141 E0.39605
G1 X139.35 Y135.141 E0.03112
G1 X139.35 Y129.996 E0.16851
G1 X129.25 Y129.996 E0.33087
G1 X129.25 Y135.141 E0.16851
G1 X128.3 Y135.141 E0.03113
G1 X128.3 Y123.051 E0.39605
G1 X129.85 Y123.051 E0.05077
G1 X129.85 Y121.989 E0.03479
G1 X130.5 Y121.988 E0.02129
G1 X130.5 Y122.134 E0.00477
G1 X138.1 Y122.134 E0.24897
G1 X138.1 Y121.988 E0.00477
G1 X138.217 Y121.989 E0.00382
G1 X138.75 Y121.989 E0.01747
G1 X138.75 Y122.991 E0.03283
M107
;WIPE_START
M204 S1500
G1 X138.75 Y123.251 F24000
;WIPE_END
M204 S1000
G1 X138.984 Y124.367
;TYPE:Solid infill
;WIDTH:0.383917
M107
G1 F1680
G1 X138.984 Y128.68 E0.13562
G1 X129.616 Y128.68 E0.29454
G1 X129.616 Y124.367 E0.13563
G1 X131.166 Y124.367 E0.04874
G1 X131.166 Y123.45 E0.02882
G1 X137.434 Y123.45 E0.19707
G1 X137.434 Y124.367 E0.02881
G1 X138.924 Y124.367 E0.04685
M107
G1 X138.638 Y124.713 F24000
M107
G1 F1680
G1 X138.638 Y128.334 E0.11385
G1 X129.962 Y128.334 E0.27276
G1 X129.962 Y124.713 E0.11385
G1 X131.512 Y124.713 E0.04873
G1 X131.512 Y123.797 E0.02882
G1 X137.088 Y123.797 E0.17529
G1 X137.088 Y124.713 E0.02882
G1 X138.578 Y124.713 E0.04685
M107
G1 X138.291 Y125.059 F24000
M107
G1 F1680
G1 X138.291 Y127.988 E0.09207
